static/fa/svgs/solid/money-bill-1.svg

<svg xmlns="http://www.w3.org/2000/svg" viewBox="0 0 576 512"><!--! Font Awesome Free 6.1.1 by @fontawesome - https://fontawesome.com License - https://fontawesome.com/license/free (Icons: CC BY 4.0, Fonts: SIL OFL 1.1, Code: MIT License) Copyright 2022 Fonticons, Inc.--><path d="M252 208c0-11.9 8.1-20 20-20h16c11 0 20 8.1 20 20v68h4c11 0 20 8.1 20 20 0 11-9 20-20 20h-48c-11.9 0-20-9-20-20 0-11.9 8.1-20 20-20h4v-48.4c-9.1-1.9-16-9.9-16-19.6zM512 64c35.3 0 64 28.65 64 64v256c0 35.3-28.7 64-64 64H64c-35.35 0-64-28.7-64-64V128c0-35.35 28.65-64 64-64h448zM128 384c0-35.3-28.65-64-64-64v64h64zM64 192c35.35 0 64-28.7 64-64H64v64zm448 192v-64c-35.3 0-64 28.7-64 64h64zm0-256h-64c0 35.3 28.7 64 64 64v-64zm-224 16c-61.9 0-112 50.1-112 112s50.1 112 112 112 112-50.1 112-112-50.1-112-112-112z"/></svg>

<svg xmlns="http://www.w3.org/2000/svg" viewBox="0 0 576 512"><!--! Font Awesome Free 6.1.1 by @fontawesome - https://fontawesome.com License - https://fontawesome.com/license/free (Icons: CC BY 4.0, Fonts: SIL OFL 1.1, Code: MIT License) Copyright 2022 Fonticons, Inc. --><path d="M252 208C252 196.1 260.1 188 272 188H288C299 188 308 196.1 308 208V276H312C323 276 332 284.1 332 296C332 307 323 316 312 316H264C252.1 316 244 307 244 296C244 284.1 252.1 276 264 276H268V227.6C258.9 225.7 252 217.7 252 208zM512 64C547.3 64 576 92.65 576 128V384C576 419.3 547.3 448 512 448H64C28.65 448 0 419.3 0 384V128C0 92.65 28.65 64 64 64H512zM128 384C128 348.7 99.35 320 64 320V384H128zM64 192C99.35 192 128 163.3 128 128H64V192zM512 384V320C476.7 320 448 348.7 448 384H512zM512 128H448C448 163.3 476.7 192 512 192V128zM288 144C226.1 144 176 194.1 176 256C176 317.9 226.1 368 288 368C349.9 368 400 317.9 400 256C400 194.1 349.9 144 288 144z"/></svg>
